X: 10272
M: C
L: 1/8
K: Eb
EDEF EB,G,B, | EeBG EFGE | AFcB AGFE | DBFD B,DFD |\
EDEF EB,G,B, | EeBG EFGE | AFcA GFED | E2E2E2 :|
|: B2 |\
e2e2 dB=AB | f2fe dB=AB | afdB AFGE | DBFD B,2 (3(B,CD) |\
E2E2 CA,G,A, | F2FE DB,=A,B, | eBAG FADF | E2G2E2 :|


